frontend/public/svg/interface/right-align.svg

<svg width="91" height="74" viewBox="0 0 91 74" fill="none" xmlns="http://www.w3.org/2000/svg">
<g clip-path="url(#clip0)">
<path d="M44.7589 65.583C54.7033 65.7323 63.9353 65.8449 73.1669 66.0231C76.7914 66.0926 80.4145 66.249 84.0364 66.491C85.459 66.5675 86.863 66.8519 88.204 67.3345C89.0969 67.6492 89.8291 68.3056 90.2393 69.1601C90.6488 70.0146 90.7028 70.9966 90.3897 71.891C89.797 73.7777 88.7826 74.1027 86.2388 73.9025C82.4093 73.602 78.5605 73.4469 74.7188 73.4206C56.4718 73.2964 38.2242 73.2719 19.9774 73.1265C15.8065 73.093 11.6332 72.7906 7.47258 72.4682C6.05619 72.3286 4.66896 71.9753 3.35822 71.42C2.61176 71.1896 1.97092 70.7025 1.54908 70.0442C1.12725 69.3866 0.951685 68.6003 1.0536 67.8249C1.12872 67.0514 1.45463 66.3236 1.98163 65.7535C2.50863 65.1828 3.20777 64.8005 3.9722 64.6648C5.26387 64.3971 6.58308 64.2852 7.90137 64.3322C20.4242 64.733 32.9464 65.1757 44.7589 65.583Z" fill="black"/>
<path d="M36.456 19.9307C51.2918 20.7827 66.1475 20.9049 80.9126 22.7086C82.1103 22.8547 83.3478 22.7298 84.53 22.9396C85.7013 23.1468 87.0609 23.3406 87.9024 24.0542C88.7401 24.8577 89.2357 25.9532 89.2871 27.1132C89.2929 27.7346 89.0621 28.3347 88.6411 28.7918C88.2206 29.2489 87.6421 29.5284 87.023 29.5738C85.2802 29.7831 83.5246 29.868 81.7696 29.8281C76.3869 29.5964 71.012 29.0946 65.6281 28.9807C48.2517 28.6113 30.8728 28.3769 13.4925 28.0616C11.8452 28.0181 10.2019 27.8745 8.57205 27.6318C7.70599 27.4949 6.86608 27.2258 6.08159 26.8339C5.46929 26.5668 4.95883 26.11 4.62511 25.5309C4.29139 24.9518 4.15198 24.2808 4.22756 23.6166C4.30534 22.2601 4.9926 21.1617 6.22817 20.8625C8.23371 20.337 10.2916 20.0372 12.3636 19.9686C20.3967 19.8721 28.4273 19.9307 36.456 19.9307Z" fill="black"/>
<path d="M68.8469 50.9392C63.8966 50.9392 58.9506 51.0113 54.0057 50.8974C52.3707 50.8427 50.7541 50.535 49.2131 49.9854C48.4939 49.76 47.8675 49.3063 47.4286 48.693C46.9898 48.0797 46.7621 47.3402 46.7803 46.586C46.7984 45.8318 47.0614 45.1039 47.5292 44.5125C47.9971 43.921 48.6446 43.4981 49.3738 43.3075C50.6176 42.8997 51.9154 42.6809 53.2239 42.6582C63.4488 42.8332 73.6722 43.0655 83.8936 43.3551C84.9878 43.3948 86.0658 43.6347 87.0745 44.063C87.8086 44.333 88.4161 44.8669 88.7787 45.5609C89.1419 46.2549 89.2332 47.0591 89.0365 47.817C88.7504 49.4141 88.0452 50.0827 85.9887 50.1818C80.2788 50.4572 74.5632 50.6323 68.8501 50.844L68.8469 50.9392Z" fill="black"/>
<path d="M72.2039 8.10307C66.7235 7.79356 61.2414 7.51937 55.7649 7.14809C54.5686 7.05942 53.3932 6.78478 52.2812 6.33411C51.6907 6.14887 51.1931 5.74537 50.8894 5.20574C50.5857 4.66611 50.4987 4.03089 50.6464 3.42942C50.9392 2.4142 51.5969 1.54331 52.4928 0.984248C53.5939 0.50399 54.7969 0.304974 55.9938 0.405104C59.7223 0.543452 63.4508 0.791198 67.1684 1.07497C72.5304 1.48809 77.8893 1.94556 83.2443 2.44747C84.3359 2.54753 85.4101 2.78959 86.4393 3.16754C86.9851 3.36724 87.4499 3.7409 87.7623 4.23094C88.0747 4.72098 88.2174 5.30028 88.1686 5.87954C88.1197 6.45879 87.8819 7.00588 87.4917 7.43662C87.1014 7.86737 86.5814 8.15783 86.0099 8.2633C85.0437 8.44637 84.0575 8.50023 83.0765 8.42346C79.4547 8.2761 75.836 8.0754 72.2161 7.89459L72.2039 8.10307Z" fill="black"/>
</g>
<defs>
<clipPath id="clip0">
<rect width="90" height="74" fill="white" transform="translate(0.777344)"/>
</clipPath>
</defs>
</svg>

<svg xmlns="http://www.w3.org/2000/svg" width="91" height="74" fill="none" viewBox="0 0 91 74"><g fill="#000" clip-path="url(#a)"><path d="M44.759 65.583c9.944.15 19.176.262 28.408.44q5.436.105 10.87.468c1.422.076 2.826.36 4.167.844a3.577 3.577 0 0 1 2.186 4.556c-.593 1.887-1.607 2.212-4.151 2.011-3.83-.3-7.678-.455-11.52-.481-18.247-.125-36.495-.15-54.742-.295-4.17-.033-8.344-.335-12.504-.658a14.1 14.1 0 0 1-4.115-1.048 3.31 3.31 0 0 1-2.304-3.595 3.56 3.56 0 0 1 2.918-3.16 16.5 16.5 0 0 1 3.93-.333c12.522.401 25.044.844 36.857 1.251M36.456 19.93c14.836.853 29.691.975 44.457 2.779 1.197.146 2.435.02 3.617.23 1.171.208 2.53.402 3.372 1.115a4.5 4.5 0 0 1 1.385 3.06 2.444 2.444 0 0 1-2.264 2.46c-1.743.21-3.498.294-5.253.254-5.383-.232-10.758-.733-16.142-.847-17.376-.37-34.755-.604-52.135-.92a41 41 0 0 1-4.92-.43 8.6 8.6 0 0 1-2.491-.797 3.12 3.12 0 0 1-1.854-3.217c.077-1.357.765-2.455 2-2.754a28 28 0 0 1 6.136-.894c8.033-.097 16.063-.038 24.092-.038M68.847 50.94c-4.95 0-9.896.071-14.841-.043a15.8 15.8 0 0 1-4.793-.912 3.47 3.47 0 0 1-2.433-3.399 3.48 3.48 0 0 1 2.594-3.279 13 13 0 0 1 3.85-.649q15.337.262 30.67.697a9 9 0 0 1 3.18.708 3.156 3.156 0 0 1 1.962 3.754c-.286 1.597-.99 2.266-3.047 2.365-5.71.275-11.426.45-17.139.662zm3.357-42.837c-5.48-.31-10.963-.584-16.44-.955a11.6 11.6 0 0 1-3.483-.814 2.433 2.433 0 0 1-1.635-2.905A4.28 4.28 0 0 1 52.493.984a7.25 7.25 0 0 1 3.5-.579c3.73.138 7.458.386 11.175.67q8.043.62 16.076 1.372c1.092.1 2.166.343 3.195.72a2.65 2.65 0 0 1 1.73 2.713 2.65 2.65 0 0 1-2.16 2.383c-.965.183-1.951.237-2.933.16-3.621-.147-7.24-.348-10.86-.528z"/></g><defs><clipPath id="a"><path fill="#fff" d="M.777 0h90v74h-90z"/></clipPath></defs></svg>
